X: 7516
T: Cobbler's, The
R: polka
M: 2/4
K: Aminor
cA aA|cd e>d|cA aA|B/A/G/B/ de/d/|
cA aA|cd e>d|cd e/d/c/B/|A2 A2:|
a2 ge|dc e>d|cA aA|B/A/G/B/ d2|
a2 ge|dc e>d|cd e/d/c/B/|A2 A2:|

